X:294
T:B294-  Lord Willoughby
S:(2nd/2)
Q:1/4=120
L:1/4
M:C|
K:Cm
G2c2|B3/2 A/GA/B/|cCEF|G4|\
EGc=B|c=BcC|E/D/C/D/ E/D/E/F/|G3/2 G/"in missing bass"zz|\
D3/2 E/FE/F/|GFGF|GFG=A|B4|\
G2=A=B|c2GG|FED2|C3/2 C/"in missing bass"zz|]

